X:1
T: Angus Grant's Reel
C:
R:Reel
I:speed 232
Q:232
K:D
M:4/4
L:1/8
|:A2|d3A F2D2|G2B2 A2Bc|dc dB AB AF|G2E2 E3A|
d3A F2D2|G2B2 A2GA|Bc dB AB AG|F2D2 D2:|
|:AG|F2D2 A2D2|B2d2 A2F2|G2B2 AB AF|G2E2 E2AG|
F2D2 A2D2|B2d2 A2F2|G2B2 AB AG|F2D2 D2:|
